/* XPM */
static char *da5b9d9aa5444a29e12e04e3e7608302O1pwDCZx7jXOGWbW[] = {
/* columns rows colors chars-per-pixel */
"32 32 3 1 ",
"  c #F8C060",
". c #E8A850",
"X c #D89060",
/* pixels */
"       .                  ......",
"       .                      ..",
"       .                    ....",
"       .                    ....",
"       .                      ..",
"       .                  ......",
"       .                        ",
"......... .... .. .... ...XXXXXX",
"                                ",
"                                ",
"                                ",
"                                ",
"                                ",
"                                ",
"                                ",
"                                ",
"          ......       .        ",
"              ..       .        ",
"            ....       .        ",
"            ....       .        ",
"              ..       .        ",
"          ......       .        ",
"                       .        ",
". .... ...XXXXXX......... .... .",
"                                ",
"                                ",
"                                ",
"                                ",
"                                ",
"                                ",
"                                ",
"                                "
};
