/* XPM */
static char *_e7910b5b66f4f59f5e31f0c1de9fbbbKmxsTKJd9ZH1yhBa[] = {
/* columns rows colors chars-per-pixel */
"32 32 91 1 ",
"  c #080828",
". c #D8A850",
"X c #F8F800",
"o c #A07840",
"O c #704020",
"+ c #000001",
"@ c #0F0C27",
"# c #1D1425",
"$ c #241824",
"% c #472C1F",
"& c #5C381C",
"* c #3C2723",
"= c #6C4523",
"- c #845422",
"; c #8C5F30",
": c #9C6C36",
"> c #784818",
", c #633C1B",
"< c #392421",
"1 c #8D5D2A",
"2 c #9F6F39",
"3 c #A87840",
"4 c #714419",
"5 c #A5753E",
"6 c #D0B088",
"7 c #F8E0B8",
"8 c #815120",
"9 c #93632F",
"0 c #F8F8F8",
"q c #3050F8",
"w c #4E301E",
"e c #322022",
"r c #45302B",
"t c #AB7541",
"y c #B47E48",
"u c #B17D46",
"i c #AB7942",
"p c #6F4825",
"a c #956837",
"s c #C38151",
"d c #C98756",
"f c #CC8A58",
"g c #C38552",
"h c #B17C46",
"j c #271B27",
"k c #654124",
"l c #B8F8A0",
"z c #E09C60",
"x c #DE9960",
"c c #DA9360",
"v c #CF8B5A",
"b c #BD834E",
"n c #2D212C",
"m c #775333",
"M c #107828",
"N c #40A028",
"B c #F0B460",
"V c #EAAB60",
"C c #D58F5E",
"Z c #CF8C5A",
"A c #F8C060",
"S c #F2B760",
"D c #E6A560",
"F c #D29358",
"G c #B68148",
"H c #10F808",
"J c #F6BD60",
"K c #DEA558",
"L c #BA8748",
"P c #E7AF5A",
"I c #C58E4E",
"U c #9F6F38",
"Y c #8D5D29",
"T c #EDB25E",
"R c #D7975A",
"E c #876039",
"W c #A5753D",
"Q c #93632E",
"! c #D82828",
"~ c #781028",
"^ c #D89060",
"/ c #81511F",
"( c #7E4D1D",
") c #8A5626",
"_ c #7B4B1A",
"` c #AE7141",
"' c #CC8C53",
"] c #E4A75C",
"[ c #A46B38",
"{ c #905A2A",
"} c #C07E4E",
/* pixels */
"                                ",
"                                ",
"                                ",
"           .XXo  o.O            ",
"            o..oO.+             ",
"              O..O           @#$",
"            .X.O.+           #%&",
"$$$$$#@    ooXXXXX.o       @#*=-",
"&&&&&%#   .X..XXXXXXo      #%=;:",
">>>>>,<O.XXXX...XXXX.o@  @#*=123",
">>>>>4,&OXXXXXXXXX.XXX.O #%=;253",
">>>>>>>o6O.XX.XXXXoXX.O6o*=12333",
">>>>>>>O77o.oXXXXo6oXo77O=;25333",
">>>>>>>4O6Oo.XX.O67o.o6O81233333",
">>>>>>>,<OXO..oO6776OXO892533333",
">>>>>>>&$+Xo+oO676O+oX+123333333",
">>>>>>>&$+.O0qO77Oq0O.+253333333",
">>>>>4,wer++7q0770q7++tyyyyui333",
">>>>>,<ewpa+o777777o+sdffffgh333",
">>>>>&$jk1+lOO6666OOl+zzzxcvbui3",
">>>>>&$nm+llMNNNNNNMll+BBVxCZgh3",
">>>4,wer+77+ONNNNNNO+77+ASDzzFG3",
">>>,<ewp+67MHOOXXOOHM76+AJSBBKL3",
">>>&$jk12+++HHNXXNHH+++AAAAAAPIy",
">>>&$nm25UY++NHHHHN++AAAAAAAATRf",
">4,werEWUQ+!~++++++~!+AAAAAAABz^",
">,<ewpaUY/+!!~+SJ+~!!+AAAAAAABz^",
">&$$&8QQ/()+++SAAA+++AAAAAAAABz^",
">&$$&_//_)`']SJAAAAAAAAAAAAAABz^",
"&we<,>>()['DSAAAAAAAAAAAAAAAABz^",
"$ew,4>>)`']SJAAAAAAAAAAAAAAAABz^",
" $&>>>>{}zBAAAAAAAAAAAAAAAAAABz^"
};
