/* XPM */
static char *_10b1c935a4c466999dbd19bf7103b7fJp9CMMD3UpVvDFX2[] = {
/* columns rows colors chars-per-pixel */
"32 32 13 1 ",
"  c #F8C060",
". c #E8A850",
"X c #D89060",
"o c black",
"O c #516169",
"+ c #9FAFBF",
"@ c #A1B0C0",
"# c #728A92",
"$ c #F8F0E0",
"% c #70868E",
"& c #6E868E",
"* c gray97",
"= c #193192",
/* pixels */
"          ......          ......",
"              ..              ..",
"            ....            ....",
"            ....            ....",
"              ..              ..",
"          ......          ......",
"                                ",
". .... ...XXXXXX. .... ...XXXXXX",
"                     o          ",
"               o    oO          ",
"              o+o  O@O          ",
"              o#+oo@Oo          ",
"         $    o%O@&&+O$         ",
"         $    o@@%@%@@o         ",
"             o%@@@##@*o         ",
"             oO%%*o@@oo         ",
"          ..oo#@@=o@@&o   ......",
"           o%%oO@@@%oo        ..",
"        ooo%%@%@%Oooo       ....",
"       oOo%+o#o@@@&&o       ....",
"       o%o%%%oo#%%%Oo         ..",
"        oo@@@Oo@@OOo      ......",
"         o#%%%o##o%o            ",
". .... ..oO@OooO@o%o.. ...XXXXXX",
"          oO##oo%o%o            ",
"           ooo o@o#o            ",
"                ooo             ",
"                                ",
"                                ",
"                                ",
"                                ",
"                                "
};
