/* XPM */
static char *_5e09454db6440becaeb698f3052fe11Bo1JyumtHCJn3vq8[] = {
/* columns rows colors chars-per-pixel */
"32 32 5 1 ",
"  c #080828",
". c #784818",
"X c #A87840",
"o c #D89060",
"O c #F8C060",
/* pixels */
"                                ",
"                                ",
"                                ",
"                                ",
"                                ",
"                                ",
"                              ..",
"                              ..",
"......        ....          ..XX",
"......        ....          ..XX",
"..........  ..XXXXXX..    ..XXXX",
"..........  ..XXXXXX..    ..XXXX",
"..........  XXXXXXXXXX....XXXXXX",
"..........  XXXXXXXXXX....XXXXXX",
"........  ..XXXXXXXX....XXXXXXXX",
"........  ..XXXXXXXX....XXXXXXXX",
"........  XXXXXXXX....XXXXXXXXXX",
"........  XXXXXXXX....XXXXXXXXXX",
"......  ..XXXXXX....ooooooooXXXX",
"......  ..XXXXXX....ooooooooXXXX",
"......  XXXXXX....ooOOOOOOooooXX",
"......  XXXXXX....ooOOOOOOooooXX",
"....  ..XXXX....ooOOOOOOOOOOOOXX",
"....  ..XXXX....ooOOOOOOOOOOOOXX",
"....  XXXX....ooOOOOOOOOOOOOOOoo",
"....  XXXX....ooOOOOOOOOOOOOOOoo",
"..  ..XX....ooOOOOOOOOOOOOOOOOoo",
"..  ..XX....ooOOOOOOOOOOOOOOOOoo",
"..  ......ooOOOOOOOOOOOOOOOOOOoo",
"..  ......ooOOOOOOOOOOOOOOOOOOoo",
"  ......ooOOOOOOOOOOOOOOOOOOOOoo",
"  ......ooOOOOOOOOOOOOOOOOOOOOoo"
};
