/* XPM */
static char *_2a105e07f694606d3fa242c60f6f11bZOA2EBB4s1fdo5u6[] = {
/* columns rows colors chars-per-pixel */
"32 32 18 1 ",
"  c #F8C060",
". c #E8A850",
"X c #D8A850",
"o c #F8F800",
"O c #A07840",
"+ c #704020",
"@ c #000001",
"# c #D89060",
"$ c #D0B088",
"% c #F8E0B8",
"& c #F8F8F8",
"* c #3050F8",
"= c #B8F8A0",
"- c #107828",
"; c #40A028",
": c #10F808",
"> c #D82828",
", c #781028",
/* pixels */
"       .                  ......",
"       .                      ..",
"       .                    ....",
"       .   XooO  OX+        ....",
"       .    OXXO+X@           ..",
"       .      +XX+        ......",
"       .    XoX+X@              ",
"......... .OOoooooXO.. ...######",
"          XoXXooooooO           ",
"       +XooooXXXooooXO          ",
"        +oooooooooXoooX+        ",
"       O$+XooXooooOooX+$O       ",
"       +%%OXOooooO$OoO%%+       ",
"        +$+OXooX+$%OXO$+        ",
"         +o+XXO+$%%$+o+         ",
"         @oO@O+$%$+@Oo@         ",
"         @X+&*+%%+*&+X@.        ",
"          @@%*&%%&*%@@ .        ",
"           @O%%%%%%O@  .        ",
"          @=++$$$$++=@ .        ",
"         @==-;;;;;;-==@.        ",
"        @%%@+;;;;;;+@%%@        ",
"        @$%-:++oo++:-%$@        ",
". .... ..@@@::;oo;::@@@.. .... .",
"           @@;::::;@@           ",
"          @>,@@@@@@,>@          ",
"          @>>,@  @,>>@          ",
"           @@@    @@@           ",
"                                ",
"                                ",
"                                ",
"                                "
};
