/* XPM */
static char *cc7ec63600e24e11abd6e144e5bb3a08kruiiXkWgrIWL4p5[] = {
/* columns rows colors chars-per-pixel */
"32 32 6 1 ",
"  c #C8C0B8",
". c #D8D8C8",
"X c #687078",
"o c #A0A0A0",
"O c #404860",
"+ c #080828",
/* pixels */
"  ......                ........",
"  ......                ........",
"    ..                    ....  ",
"    ..                    ....  ",
"      ..                ..      ",
"      ..                ..      ",
"      ....            ....      ",
"      ....            ....      ",
"    ..                    ..    ",
"    ..                    ..    ",
"  ..                        ....",
"  ..                        ....",
"          ................      ",
"          ................      ",
"        ..XXXXXXXXXXXXXXXX..    ",
"        ..XXXXXXXXXXXXXXXX..    ",
"        XXXXXXXXXXXXXXXXXXXX    ",
"        XXXXXXXXXXXXXXXXXXXX    ",
"........XXXXXXXXXXXXXXXXXXXX....",
"........XXXXXXXXXXXXXXXXXXXX....",
"XXXXXXXXooXXXXXXXXXXXXXXXXooXXXX",
"XXXXXXXXooXXXXXXXXXXXXXXXXooXXXX",
"XXXXXXXXXXooooooooooooooooXXXXXX",
"XXXXXXXXXXooooooooooooooooXXXXXX",
"XXXXXXXXooXXXXXXXXooooooooooXXXX",
"XXXXXXXXooXXXXXXXXooooooooooXXXX",
"ooooooooOO++++++++++XXXXXXXXoooo",
"ooooooooOO++++++++++XXXXXXXXoooo",
"++OOXXXX++++++++++++OO++++++++++",
"++OOXXXX++++++++++++OO++++++++++",
"++++OOOOOO++++++++OO++++++++++++",
"++++OOOOOO++++++++OO++++++++++++"
};
